icon/pk/cube-four.svg

<svg viewBox="0 0 48 48" fill="none" xmlns="http://www.w3.org/2000/svg" height="1em" width="1em">
  <path d="M15.3399 9L6.67969 14V24V34L15.3399 39L24.0002 44L32.6605 39L41.3207 34V24V14L32.6605 9L24.0002 4L15.3399 9Z" fill="#2F88FF" stroke="black" stroke-width="4" stroke-linecap="round" stroke-linejoin="round"/>
  <path d="M24.0002 24L13.6079 30M24.0002 24V11V24ZM24.0002 24L34.3925 30L24.0002 24Z" stroke="white" stroke-width="4" stroke-linecap="round" stroke-linejoin="round"/>
  <path d="M26.8147 35.375L24.0001 37L21.1855 35.375" stroke="white" stroke-width="4" stroke-linecap="round" stroke-linejoin="round"/>
  <path d="M32.4438 15.875L35.2584 17.5V20.75" stroke="white" stroke-width="4" stroke-linecap="round" stroke-linejoin="round"/>
  <path d="M12.7417 20.75V17.5L15.5563 15.875" stroke="white" stroke-width="4" stroke-linecap="round" stroke-linejoin="round"/>
</svg>

<svg width="48" height="48" fill="none" xmlns="http://www.w3.org/2000/svg"><path d="m15.34 9-8.66 5v20l8.66 5L24 44l8.66-5 8.66-5V14l-8.66-5L24 4l-8.66 5Z" fill="#2F88FF" stroke="#000" stroke-width="4" stroke-linecap="round" stroke-linejoin="round"/><path d="m24 24-10.392 6M24 24V11v13Zm0 0 10.392 6L24 24ZM26.815 35.375 24 37l-2.814-1.625M32.444 15.875l2.814 1.625v3.25M12.742 20.75V17.5l2.814-1.625" stroke="#fff" stroke-width="4" stroke-linecap="round" stroke-linejoin="round"/></svg>
